usr/share/icons/hicolor/scalable/status/biglinux-lock.svg

<svg version="1.1" viewBox="0 0 22 22" xmlns="http://www.w3.org/2000/svg" xmlns:xlink="http://www.w3.org/1999/xlink"><defs><style type="text/css">.ColorScheme-Text {
        color:#31363b;
      }
      .ColorScheme-Background {
        color:#eff0f1;
      }
      .ColorScheme-Highlight {
        color:#3daee9;
      }
      .ColorScheme-ViewText {
        color:#31363b;
      }
      .ColorScheme-ViewBackground {
        color:#fcfcfc;
      }
      .ColorScheme-ViewHover {
        color:#93cee9;
      }
      .ColorScheme-ViewFocus{
        color:#3daee9;
      }
      .ColorScheme-ButtonText {
        color:#31363b;
      }
      .ColorScheme-ButtonBackground {
        color:#eff0f1;
      }
      .ColorScheme-ButtonHover {
        color:#93cee9;
      }
      .ColorScheme-ButtonFocus{
        color:#3daee9;
      }</style><clipPath id="b"><use transform="translate(-15,-10.75)" xlink:href="#a"/></clipPath></defs><g id="a" transform="translate(15,10.75)" clip-path="url(#b)"><rect x="-10" y="-6.5" width="12" height="16" rx="1" ry="1" opacity=".2"/><rect x="-10" y="-7" width="12" height="16" rx="1" ry="1" fill="#adadad"/><rect x="-14" y="-8.5" width="20" height="16" rx="1" ry="1" opacity=".2"/><path d="m-14 5v1c0 0.554 0.446 1 1 1h18c0.554 0 1-0.446 1-1v-1z" fill="#595959"/><path d="m-13-9c-0.554 0-1 0.446-1 1v13h20v-13c0-0.554-0.446-1-1-1z" fill="#333"/><rect x="-14" y="5" width="20" height=".5" fill="#fff" opacity=".1"/><path d="m-13-9c-0.554 0-1 0.446-1 1v0.5c0-0.554 0.446-1 1-1h18c0.554 0 1 0.446 1 1v-0.5c0-0.554-0.446-1-1-1z" fill="#fff" opacity=".1"/></g><path class="ColorScheme-Text" d="m11 4.9014c-1.686 0-3.0457 1.1647-3.0457 2.6106v2.6106h-1.5193v3.9135h9.13v-3.9135h-1.5241v-2.6106c0-1.4459-1.3549-2.6106-3.0409-2.6106zm0 1.3053c0.84302 0 1.5217 0.58237 1.5217 1.3053v2.6106h-3.0433v-2.6106c0-0.72294 0.67864-1.3053 1.5217-1.3053z" fill="#adadad"/></svg>

<svg xmlns="http://www.w3.org/2000/svg" xmlns:xlink="http://www.w3.org/1999/xlink" viewBox="0 0 22 22"><defs><clipPath id="b"><use xlink:href="#a" transform="translate(-15 -10.75)"/></clipPath></defs><g id="a" clip-path="url(#b)" transform="translate(15 10.75)"><rect width="12" height="16" x="-10" y="-6.5" opacity=".2" rx="1" ry="1"/><rect width="12" height="16" x="-10" y="-7" fill="#adadad" rx="1" ry="1"/><rect width="20" height="16" x="-14" y="-8.5" opacity=".2" rx="1" ry="1"/><path fill="#595959" d="M-14 5v1c0 .554.446 1 1 1H5c.554 0 1-.446 1-1V5z"/><path fill="#333" d="M-13-9c-.554 0-1 .446-1 1V5H6V-8c0-.554-.446-1-1-1z"/><path fill="#fff" d="M-14 5H6v.5h-20zM-13-9c-.554 0-1 .446-1 1v.5c0-.554.446-1 1-1H5c.554 0 1 .446 1 1V-8c0-.554-.446-1-1-1z" opacity=".1"/></g><path fill="#adadad" d="M11 4.901c-1.686 0-3.046 1.165-3.046 2.611v2.61H6.435v3.914h9.13v-3.913h-1.524V7.512c0-1.446-1.355-2.61-3.041-2.61m0 1.306c.843 0 1.522.582 1.522 1.305v2.61H9.478v-2.61c0-.723.679-1.305 1.522-1.305" style="color:#31363b"/></svg>
